brandFactory_export/3.Masa/Compartir_3Masa.svg

<?xml version="1.0" encoding="UTF-8"?>
<svg width="24px" height="24px" viewBox="0 0 24 24" version="1.1" xmlns="http://www.w3.org/2000/svg" xmlns:xlink="http://www.w3.org/1999/xlink">
    <title>3.Masa/Compartir_3Masa</title>
    <g id="Symbols" stroke="none" stroke-width="1" fill="none" fill-rule="evenodd">
        <g id="3.Masa/Compartir_3Masa" fill="#5CB615" fill-rule="nonzero">
            <path d="M11.8117647,0.0235294118 C4.33277311,0.0235294118 0.0201680672,3.74789916 0.0201680672,11.8117647 C0.0201680672,19.8756303 4.33277311,23.6033613 11.8117647,23.6033613 C19.2907563,23.6033613 23.6033613,19.8756303 23.6033613,11.8117647 C23.6033613,3.74789916 19.287395,0.0235294118 11.8117647,0.0235294118 Z M10.2016807,11.8117647 C10.2016807,12.0705882 10.1781513,12.312605 10.1378151,12.5411765 L13.3109244,14.1277311 C13.394958,14.0168067 13.4857143,13.9092437 13.5865546,13.8151261 C14.087395,13.3411765 14.8033613,13.0890756 15.6537815,13.0890756 C16.5042017,13.0890756 17.2235294,13.3411765 17.7210084,13.8151261 C18.2588235,14.3260504 18.5310924,15.0554622 18.5310924,15.9798319 C18.5310924,16.8672269 18.2789916,17.5731092 17.7815126,18.0806723 C17.2773109,18.5983193 16.5411765,18.8705882 15.6504202,18.8705882 C14.7596639,18.8705882 14.0235294,18.5983193 13.5193277,18.0806723 C13.0218487,17.5731092 12.7697479,16.8638655 12.7697479,15.9798319 C12.7697479,15.7714286 12.7831933,15.5731092 12.8134454,15.3848739 L9.57983193,13.7680672 C9.5394958,13.8184874 9.49579832,13.8689076 9.4487395,13.9159664 C8.94453782,14.4336134 8.20840336,14.7058824 7.31764706,14.7058824 C6.42689076,14.7058824 5.6907563,14.4336134 5.18655462,13.9159664 C4.68907563,13.4084034 4.43697479,12.6991597 4.43697479,11.8151261 C4.43697479,10.8907563 4.7092437,10.1613445 5.24705882,9.65042017 C5.74789916,9.17647059 6.46386555,8.92436975 7.31428571,8.92436975 C8.16470588,8.92436975 8.88403361,9.17647059 9.38151261,9.65042017 C9.45210084,9.71764706 9.51932773,9.78823529 9.57983193,9.86554622 L12.810084,8.25210084 C12.7831933,8.0605042 12.7663866,7.86218487 12.7663866,7.65042017 C12.7663866,6.72605042 13.0386555,5.99663866 13.5764706,5.48571429 C14.0773109,5.01176471 14.7932773,4.75966387 15.6436975,4.75966387 C16.4941176,4.75966387 17.2134454,5.01176471 17.7109244,5.48571429 C18.2487395,5.99663866 18.5210084,6.72605042 18.5210084,7.65042017 C18.5210084,8.53781513 18.2689076,9.24369748 17.7714286,9.7512605 C17.2672269,10.2689076 16.5310924,10.5411765 15.6403361,10.5411765 C14.7495798,10.5411765 14.0134454,10.2689076 13.5092437,9.7512605 C13.4352941,9.67394958 13.3647059,9.58991597 13.3008403,9.50588235 L10.1243697,11.0957983 C10.1815126,11.3176471 10.2016807,11.5563025 10.2016807,11.8117647 L10.2016807,11.8117647 Z" id="Compartir_3Masa"></path>
        </g>
    </g>
</svg>

<svg width="24" height="24" viewBox="0 0 24 24" xmlns="http://www.w3.org/2000/svg"><path d="M11.812.024C4.332.024.02 3.748.02 11.812s4.313 11.791 11.792 11.791 11.791-3.727 11.791-11.791S19.287.024 11.812.024zm-1.61 11.788c0 .259-.024.5-.064.73l3.173 1.586c.084-.111.175-.219.276-.313.5-.474 1.216-.726 2.067-.726.85 0 1.57.252 2.067.726.538.511.81 1.24.81 2.165 0 .887-.252 1.593-.75 2.1-.504.518-1.24.79-2.13.79-.891 0-1.627-.272-2.132-.79-.497-.507-.75-1.216-.75-2.1 0-.209.014-.407.044-.595L9.58 13.768c-.04.05-.084.1-.131.148-.504.518-1.24.79-2.131.79-.891 0-1.627-.272-2.131-.79-.498-.508-.75-1.217-.75-2.1 0-.925.272-1.655.81-2.166.5-.474 1.217-.726 2.067-.726.85 0 1.57.252 2.068.726.07.068.137.138.198.216l3.23-1.614a4.293 4.293 0 01-.044-.602c0-.924.273-1.653.81-2.164.501-.474 1.217-.726 2.068-.726.85 0 1.57.252 2.067.726.538.51.81 1.24.81 2.164 0 .888-.252 1.594-.75 2.101-.504.518-1.24.79-2.13.79-.891 0-1.628-.272-2.132-.79a2.872 2.872 0 01-.208-.245l-3.177 1.59c.058.222.078.46.078.716z" fill="#5CB615" fill-rule="nonzero"/></svg>
